X: 32
T: The Sylph
R: jig
M: 6/8
L: 1/8
N: This is a formerly popular jig found in various English collections;
N: strain 2 is found elsewhere an octave lower.
Z: 2010 John Chambers <jc:trillian.mit.edu>
B: Anonymous manuscript tune book (1800-1840) p.33
F: http://www.asaplive.com/archive/browse_by_collection.asp
N: The asaplive.com web site is complex, and links to its files don't usually work.
N: Note the 4-note first beat in bar 15.
K: D
A |\
AFA dfa | agf e2g | fag fed | cee e2A |\
AFA dfa | agf e2g | fad egc | ddd d2 :|
|: a |\
fad' d'c'b | bag f2d | f/g/ad f/g/ad | cee e2e |\
fad' d'c'b | bag f2d | fgad gec | ddd d2 :|


%%sep 5 1 500

